X: 10065
T: Dick's Maggot
R: three-two
M: 3/2
K: Gmajor
gd2 B2 A|B/c/d A/B/c B2|gd2 B2 A|B/c/d GF G2:|
fa2 f2 d|g/a/b e/f/g f2|fa2 f2 d|d/e/f A/B/^c d =c|B/c/d B/c/d e2|e/f/g e/f/g fe/f/|gd2 B2 c|A_A G||

